X: 27862
T: Mouchti
R: mazurka
M: 3/4
K: Aminor
M:9/8
|:EA2c|"Am"e4zEA2c|"G"e4zEA2c|"D/F#"e3d2e2- (3edc|"F"d6 z2e|
"Dm"d3 c6|"G"z3 c2d d2e|1 "C"c4zc2- (3cBA|"E"^G4z:|2 "C"c6-c3-|c4z||
|:AB2c|"Dm"f4zed2c|"Em"B4zde2f|"E"^g4zf e2d|"Am"c3A4zc|
"Bm"B3^F4zA|"E"^G3 A3 B3|1 "Am"A3 B3 c3|"G"B2c d2:|"Am"2 A6-A3-|A4z||

